X: 1
T: Ebb Tide, The
M: 4/4
L: 1/8
K: G
dc|B/^c/B AB GAB=c|~d2 {A}GF G2 bg|fdcB cedB|cBAG =F3 A|
BdAB GABc|d2 fd gfdB|cBAG AeAc|1 B/^c/B GF G3 A:|2 B/^c/B GF G3 a||
bgdG gGdG|d2 Bd ga~ag|aB c/B/A eAcA|eAcA eAcA|
B/^c/B AB GAB=c|defd gfdB|cBAG AeAc|1 B/^c/B GF G3 a:|2 B/^c/B GF G3 A||
